!!!COM: Bach, Johann Sebastian
!!!OPR: Joh. Seb. Bachs vierstimmige Choralgesänge
!!!XEN: Four-part Chorales
!!!OTL: Chorale 147. O Herzensangst, o Bangigkeit
!!!SCT: BWV 400
!!!SCA: Thematisch-systematisches Verzeichnis der musikalischen Werke Johann Sebastian Bach: Bach-Werke-Verzeichnis (Schmieder)
!!!YOR: Bach Gesellschaft Edition xxxix
!!!ENC: Steven Rasmussen
!!!CDT: 1685/3//-1750/7/28/
!!!OCY: Deutschland
!!!YEC: Copyright (c) 1994, 2000 Center for Computer Assisted Research in the Humanities
!!!YEM: Rights to all derivative editions reserved
!!!YEN: United States of America
**kern	**silbe	**kern	**silbe	**kern	**silbe	**kern	**silbe
*I:[BASSO]	*I:[BASSO]	*I:[TENORE]	*I:[TENORE]	*I:[ALTO]	*I:[ALTO]	*I:[SOPRANO]	*I:[SOPRANO]
*clefF4	*	*clefGv2	*	*clefG2	*	*clefG2	*
*k[b-e-a-]	*	*k[b-e-a-]	*	*k[b-e-a-]	*	*k[b-e-a-]	*
*E-:	*	*E-:	*	*E-:	*	*E-:	*
*M3/4	*	*M3/4	*	*M3/4	*	*M3/4	*
=1-	=1-	=1-	=1-	=1-	=1-	=1-	=1-
4E-	.	4G	.	4e-	.	4b-	O
4E-	.	4B-	.	4e-	.	4g	Her-
4AA-	.	8A-L	.	4e-	.	4cc	-zens-
.	.	8GJ	.	.	.	.	.
=2	=2	=2	=2	=2	=2	=2	=2
2AA-;	.	2F;	.	2d;	.	2b-;	-angst,
4G	o	4B-	.	4e-	.	4e-	o
=3	=3	=3	=3	=3	=3	=3	=3
8FL	Ban-	2A-	.	8dL	.	2f	Ban-
8E-J	.	.	.	8cJ	.	.	.
4D	-gig-	.	.	2B-	.	.	.
[4E-	-keit	4G	.	.	.	4g	-gig-
=4	=4	=4	=4	=4	=4	=4	=4
4E-]	.	4c	.	2f	.	2a-	-keit
8DL	.	4B-	.	.	.	.	.
8CJ	.	.	.	.	.	.	.
4D	und	4B-	.	4f	.	4b-	und
=5	=5	=5	=5	=5	=5	=5	=5
4E-	.	4B-	.	4e-	.	4g	Za-
2EE-;	.	2G;	.	2B-;	.	2e-;	-gen!
=6	=6	=6	=6	=6	=6	=6	=6
4BB-	.	4B-	.	4d	.	4f	Was
8E-L	.	4B-	.	4e-	.	4g	seh'
8DJ	.	.	.	.	.	.	.
4C	.	4c	.	4e-	.	4an	ich
=7	=7	=7	=7	=7	=7	=7	=7
2BB-;	.	2F;	.	2d;	.	2b-;	hier
4B-	.	4B-	.	4f	.	4dd	fÃ¼r
=8	=8	=8	=8	=8	=8	=8	=8
4An	.	4c	.	4f	.	4cc	ei-
4A-	.	4B-	.	4f	.	4dd	-ne
4G	.	4B-	.	4e-	.	4ee-	Lei-
=9	=9	=9	=9	=9	=9	=9	=9
4F	.	2B-	.	4f	.	4dd	-che
(4E-	.	.	.	4g	.	2cc	tra-
4F)	.	4An	tra-	8fL	.	.	.
.	.	.	.	8e-J	.	.	.
=10	=10	=10	=10	=10	=10	=10	=10
2.BB-;	.	2.F;	-gen!	2.d;	.	2.b-;	-gen!
=11	=11	=11	=11	=11	=11	=11	=11
8B-L	.	4d	.	4f	.	4b-	Wess
8A-J	.	.	.	.	.	.	.
8GL	.	4d	.	4g	.	4bn	ist
8FJ	.	.	.	.	.	.	.
8E-L	.	4G	.	8gL	.	4b	das
8DJ	.	.	.	8fJ	.	.	.
=12	=12	=12	=12	=12	=12	=12	=12
2C;	.	2G;	.	2e-;	.	2cc;	Grab,
4BBn	.	4d	.	4g	.	4dd	wie
=13	=13	=13	=13	=13	=13	=13	=13
4.C	.	4c	.	4g	.	4.ee-	ist
.	.	4c	.	4g	.	.	.
8BB-	.	.	.	.	.	8ee-	der
4AA-	.	4c	.	4f	.	4ff	Fels
=14	=14	=14	=14	=14	=14	=14	=14
4GG	.	4c	.	4g	.	4ee-	zu
4FF	.	4c	.	4a-	.	2dd	nen-
4GG	.	4Bn	.	8gL	.	.	.
.	.	.	.	8fJ	.	.	.
=15	=15	=15	=15	=15	=15	=15	=15
2C;	.	2G;	.	2e-;	.	2cc;	-nen?
4GG	.	4d-	.	4e-	.	4b-	Ich
=16	=16	=16	=16	=16	=16	=16	=16
2AA-	.	8cL	.	4e-	.	4.cc	soll
.	.	8B-J	.	.	.	.	.
.	.	4c	.	4f	.	.	.
.	.	.	.	.	.	8dd	.
8GGL	.	4B-	ihn	[4g	ihn	4ee-	ihn
8AA-J	.	.	.	.	.	.	.
=17	=17	=17	=17	=17	=17	=17	=17
2.BB-	.	2.B-	ken-	4g]	.	2ee-	ken-
.	.	.	.	8fL	ken-	.	.
.	.	.	.	8e-	.	.	.
.	.	.	.	8f	.	4dd	.
.	.	.	.	8a-J	.	.	.
=18	=18	=18	=18	=18	=18	=18	=18
2.EE-;	.	2.B-;	-nen.	2.g;	-nen.	2.ee-;	-nen.
==|!	==|!	==|!	==|!	==|!	==|!	==|!	==|!
*-	*-	*-	*-	*-	*-	*-	*-
!!!RWG: Key is interpreted using the Humdrum key tool.
!!!URL-pdf: https://s9.imslp.org/files/imglnks/usimg/7/7a/IMSLP04155-Bach_-_BGA_253-438.pdf#page=81 	Bach-Gesellschaft Ausgabe, Band 39 (pp.175-276) Leipzig: Breitkopf und Härtel, 1892. Plate B.W. XXXIX.
!!!END: 1994/07/27
!!!EMD: Converted from MuseData to Humdrum Dec 19, 2000, by Andreas Kornstaedt using muse2kern.
!!!EED: Craig Stuart Sapp
!!!EEV: 2024/03/31
!!!filter-keyboard: satb2gs
!!!title: @{OTL} (@{SCT})
